packages/elvis-assets-icons/icons/svg/src/graph_bar.svg

<svg width="24" height="24" fill="none" xmlns="http://www.w3.org/2000/svg"><path d="M.75 24a.75.75 0 010-1.5h.75V18c0-.827.673-1.5 1.5-1.5h3c.827 0 1.5.673 1.5 1.5v4.5H9v-12c0-.827.673-1.5 1.5-1.5h3c.827 0 1.5.673 1.5 1.5v12h1.5V15c0-.827.673-1.5 1.5-1.5h3c.827 0 1.5.673 1.5 1.5v7.5h.75a.75.75 0 010 1.5H.75zM21 22.5V15h-3v7.5h3zm-7.5 0v-12h-3v12h3zm-7.5 0V18H3v4.5h3z" fill="#000"/><path fill-rule="evenodd" clip-rule="evenodd" d="M4.5 13a2.252 2.252 0 01-2.25-2.25 2.252 2.252 0 013.012-2.116l4.818-5.218a2.257 2.257 0 01-.327-1.166A2.252 2.252 0 0112.003 0c1.163 0 2.497 1 2.217 2.6l4.18 2.68S19 5 19.5 5a2.252 2.252 0 012.25 2.25A2.252 2.252 0 0119.5 9.5c-1.241 0-2.25-1-2.25-2.25 0-.5.13-.75.13-.75L13.5 3.938s-.605.562-1.497.562c-.253 0-.518-.046-.762-.134L6.423 9.584c.212.35.327.755.327 1.166A2.252 2.252 0 014.5 13zm-.75-2.25a.75.75 0 111.5 0 .75.75 0 01-1.5 0zm15-3.5a.75.75 0 111.5 0 .75.75 0 01-1.5 0zm-7.497-5a.75.75 0 111.5 0 .75.75 0 01-1.5 0z" fill="#000"/></svg>

<svg width="24" height="24" viewBox="0 0 24 24" fill="none" xmlns="http://www.w3.org/2000/svg">
<path d="M0.75 24C0.336 24 0 23.664 0 23.25C0 22.836 0.336 22.5 0.75 22.5H1.5V18C1.5 17.173 2.173 16.5 3 16.5H6C6.827 16.5 7.5 17.173 7.5 18V22.5H9V10.5C9 9.673 9.673 9 10.5 9H13.5C14.327 9 15 9.673 15 10.5V22.5H16.5V15C16.5 14.173 17.173 13.5 18 13.5H21C21.827 13.5 22.5 14.173 22.5 15V22.5H23.25C23.664 22.5 24 22.836 24 23.25C24 23.664 23.664 24 23.25 24H0.75ZM21 22.5V15H18V22.5H21ZM13.5 22.5V10.5H10.5V22.5H13.5ZM6 22.5V18H3V22.5H6Z" fill="black"/>
<path fill-rule="evenodd" clip-rule="evenodd" d="M4.5 13C3.259 13 2.25 11.991 2.25 10.75C2.25 9.509 3.259 8.5 4.5 8.5C4.759 8.5 5.018 8.546 5.262 8.634L10.08 3.416C9.868 3.066 9.753 2.661 9.753 2.25C9.753 1.009 10.762 0 12.003 0C13.1662 0 14.5 1 14.22 2.6L18.4 5.28C18.4 5.28 19 5 19.5 5C20.741 5 21.75 6.009 21.75 7.25C21.75 8.491 20.741 9.5 19.5 9.5C18.259 9.5 17.25 8.5 17.25 7.25C17.25 6.75 17.38 6.5 17.38 6.5L13.5 3.938C13.5 3.938 12.8945 4.5 12.003 4.5C11.75 4.5 11.485 4.454 11.241 4.366L6.423 9.584C6.635 9.934 6.75 10.339 6.75 10.75C6.75 11.991 5.741 13 4.5 13ZM3.75 10.75C3.75 10.336 4.086 10 4.5 10C4.914 10 5.25 10.336 5.25 10.75C5.25 11.164 4.914 11.5 4.5 11.5C4.086 11.5 3.75 11.164 3.75 10.75ZM18.75 7.25C18.75 6.836 19.086 6.5 19.5 6.5C19.914 6.5 20.25 6.836 20.25 7.25C20.25 7.664 19.914 8 19.5 8C19.086 8 18.75 7.664 18.75 7.25ZM11.253 2.25C11.253 1.836 11.589 1.5 12.003 1.5C12.417 1.5 12.753 1.836 12.753 2.25C12.753 2.664 12.417 3 12.003 3C11.589 3 11.253 2.664 11.253 2.25Z" fill="black"/>
</svg>
